X: 22887
T: Lark's March, The
R: jig
M: 6/8
K: Dmajor
AFE F3|DED DFB|AFE FAE|DFA B2 d|
AFE F3|DED D2 f|gfe fdB|AFA B3:|
|:A2 d fdB|ABA AFB|A2 d fdB|AFA B2 d|
A2 d fdB|ABA Aef|gfe fdB|AFA B3:|
|:Add fdd|edd fdB|Add fdB|AFA B2 A|
Add fdB|ABA Aef|gfe fdB|AFA B2 d:|
|:DFA dAF|DFA BAF|DFA dAF|DFA B2 A|
DFA d2 A|dfe def|gfe fdB|AFA B3:|
|:d3 def|AFF FED|ded def|~a3 A2 B|
d2 d def|ded def|gfe fdB|1 AFA B3:|

